dist/images/icons/build.svg

<svg width="16" height="16" viewBox="0 0 16 16" fill="none" xmlns="http://www.w3.org/2000/svg">
<path opacity="0.2" d="M8.99951 13.498V2.49805C8.99951 2.36544 8.94683 2.23826 8.85307 2.14449C8.7593 2.05073 8.63212 1.99805 8.49951 1.99805H2.49951C2.3669 1.99805 2.23973 2.05073 2.14596 2.14449C2.05219 2.23826 1.99951 2.36544 1.99951 2.49805V13.498" fill="#4D5A65"/>
<path fill-rule="evenodd" clip-rule="evenodd" d="M0.5 13.498C0.5 13.2219 0.723858 12.998 1 12.998H15C15.2761 12.998 15.5 13.2219 15.5 13.498C15.5 13.7742 15.2761 13.998 15 13.998H1C0.723858 13.998 0.5 13.7742 0.5 13.498Z" fill="#112E49"/>
<path fill-rule="evenodd" clip-rule="evenodd" d="M1.7924 1.79094C1.97994 1.6034 2.2343 1.49805 2.49951 1.49805H8.49951C8.76473 1.49805 9.01908 1.6034 9.20662 1.79094C9.39416 1.97848 9.49951 2.23283 9.49951 2.49805V13.498C9.49951 13.7742 9.27565 13.998 8.99951 13.998C8.72337 13.998 8.49951 13.7742 8.49951 13.498V2.49805H2.49951L2.49951 13.498C2.49951 13.7742 2.27565 13.998 1.99951 13.998C1.72337 13.998 1.49951 13.7742 1.49951 13.498V2.49805C1.49951 2.23283 1.60487 1.97848 1.7924 1.79094Z" fill="#112E49"/>
<path fill-rule="evenodd" clip-rule="evenodd" d="M8.49951 5.99805C8.49951 5.7219 8.72337 5.49805 8.99951 5.49805H13.4995C13.7647 5.49805 14.0191 5.6034 14.2066 5.79094C14.3942 5.97848 14.4995 6.23283 14.4995 6.49805V13.498C14.4995 13.7742 14.2757 13.998 13.9995 13.998C13.7234 13.998 13.4995 13.7742 13.4995 13.498L13.4995 6.49805L8.99951 6.49805C8.72337 6.49805 8.49951 6.27419 8.49951 5.99805Z" fill="#112E49"/>
<path fill-rule="evenodd" clip-rule="evenodd" d="M3.49951 4.49805C3.49951 4.2219 3.72337 3.99805 3.99951 3.99805H5.99951C6.27565 3.99805 6.49951 4.2219 6.49951 4.49805C6.49951 4.77419 6.27565 4.99805 5.99951 4.99805H3.99951C3.72337 4.99805 3.49951 4.77419 3.49951 4.49805Z" fill="#112E49"/>
<path fill-rule="evenodd" clip-rule="evenodd" d="M4.49951 8.49805C4.49951 8.2219 4.72337 7.99805 4.99951 7.99805H6.99951C7.27565 7.99805 7.49951 8.2219 7.49951 8.49805C7.49951 8.77419 7.27565 8.99805 6.99951 8.99805H4.99951C4.72337 8.99805 4.49951 8.77419 4.49951 8.49805Z" fill="#112E49"/>
<path fill-rule="evenodd" clip-rule="evenodd" d="M3.49951 10.998C3.49951 10.7219 3.72337 10.498 3.99951 10.498H5.99951C6.27565 10.498 6.49951 10.7219 6.49951 10.998C6.49951 11.2742 6.27565 11.498 5.99951 11.498H3.99951C3.72337 11.498 3.49951 11.2742 3.49951 10.998Z" fill="#112E49"/>
<path fill-rule="evenodd" clip-rule="evenodd" d="M10.4995 10.998C10.4995 10.7219 10.7234 10.498 10.9995 10.498H11.9995C12.2757 10.498 12.4995 10.7219 12.4995 10.998C12.4995 11.2742 12.2757 11.498 11.9995 11.498H10.9995C10.7234 11.498 10.4995 11.2742 10.4995 10.998Z" fill="#112E49"/>
<path fill-rule="evenodd" clip-rule="evenodd" d="M10.4995 8.49805C10.4995 8.2219 10.7234 7.99805 10.9995 7.99805H11.9995C12.2757 7.99805 12.4995 8.2219 12.4995 8.49805C12.4995 8.77419 12.2757 8.99805 11.9995 8.99805H10.9995C10.7234 8.99805 10.4995 8.77419 10.4995 8.49805Z" fill="#112E49"/>
</svg>

<svg width="16" height="16" fill="none" xmlns="http://www.w3.org/2000/svg"><path opacity=".2" d="M9 13.498v-11a.5.5 0 00-.5-.5h-6a.5.5 0 00-.5.5v11" fill="#4D5A65"/><path fill-rule="evenodd" clip-rule="evenodd" d="M.5 13.498a.5.5 0 01.5-.5h14a.5.5 0 010 1H1a.5.5 0 01-.5-.5z" fill="#112E49"/><path fill-rule="evenodd" clip-rule="evenodd" d="M1.792 1.79a1 1 0 01.708-.292h6a1 1 0 011 1v11a.5.5 0 11-1 0v-11h-6v11a.5.5 0 11-1 0v-11a1 1 0 01.292-.707z" fill="#112E49"/><path fill-rule="evenodd" clip-rule="evenodd" d="M8.5 5.998a.5.5 0 01.5-.5h4.5a1 1 0 011 1v7a.5.5 0 11-1 0v-7H9a.5.5 0 01-.5-.5zm-5-1.5a.5.5 0 01.5-.5h2a.5.5 0 110 1H4a.5.5 0 01-.5-.5zm1 4a.5.5 0 01.5-.5h2a.5.5 0 110 1H5a.5.5 0 01-.5-.5zm-1 2.5a.5.5 0 01.5-.5h2a.5.5 0 010 1H4a.5.5 0 01-.5-.5z" fill="#112E49"/><path fill-rule="evenodd" clip-rule="evenodd" d="M10.5 10.998a.5.5 0 01.5-.5h1a.5.5 0 110 1h-1a.5.5 0 01-.5-.5zm0-2.5a.5.5 0 01.5-.5h1a.5.5 0 110 1h-1a.5.5 0 01-.5-.5z" fill="#112E49"/></svg>
